icons/glyphs/glyph-step.svg

<?xml version="1.0" encoding="UTF-8" standalone="no"?><svg height="16" viewBox="0 0 4.2333332 4.2333332" width="16" xmlns="http://www.w3.org/2000/svg"><sodipodi:namedview/><metadata><rdf:RDF><cc:Work><dc:format>image/svg+xml</dc:format><dc:type/><dc:title/></cc:Work></rdf:RDF></metadata><path d="m2.3988281 0v8.2480469c.6283813.134449 1.0775723.6894277 1.078125 1.3320312.00103.7536599-.609621 1.3651809-1.3632812 1.3652339-.7536602-.000053-1.36430669-.611574-1.36328129-1.3652339.0005527-.6426035.44974369-1.1975822 1.07812499-1.3320312v-8.2402344c-1.23964239.03675478-1.8285156 1.0401991-1.8285156 2.2890625v11.40625c0 1.272282 1.0245927 2.296875 2.296875 2.296875h11.40625c1.272282 0 2.296875-1.024593 2.296875-2.296875v-11.40625c0-1.2722823-1.024593-2.296875-2.296875-2.296875h-2.007813l2.203126 8.2207031c.642038-.033025 1.219903.3869452 1.386718 1.0078125.194915.7275988-.237143 1.4753914-.964844 1.6699224-.727598.194914-1.47539-.237143-1.669921-.9648442-.16638-.6207531.123326-1.2734064.695312-1.5664063l-2.242187-8.3671875h-2.4019535v8.2480469c.6276048.1352452 1.0758165.6900195 1.0761715 1.3320312.001025.7528969-.6084308 1.3641019-1.3613278 1.3652339-.7536602-.000053-1.3643066-.611574-1.3632812-1.3652339.0003547-.6420118.4485669-1.1967862 1.0761719-1.3320312v-8.2480469h-2.5800781v8.2480469c.6283813.134449 1.0775723.6894277 1.078125 1.3320312.0010254.7536599-.6096211 1.3651809-1.3632813 1.3652339-.7536602-.000053-1.3643067-.611574-1.3632813-1.3652339.0005527-.6426035.4497437-1.1975822 1.078125-1.3320312v-8.2480469z" fill="#d0d0d0" stroke-linecap="square" stroke-width="1.9" transform="scale(.26458333)"/></svg>

<?xml version="1.0" encoding="UTF-8" standalone="no"?>
<!-- Created with Inkscape (http://www.inkscape.org/) -->

<svg
   xmlns:dc="http://purl.org/dc/elements/1.1/"
   xmlns:cc="http://creativecommons.org/ns#"
   xmlns:rdf="http://www.w3.org/1999/02/22-rdf-syntax-ns#"
   xmlns:svg="http://www.w3.org/2000/svg"
   xmlns="http://www.w3.org/2000/svg"
   xmlns:sodipodi="http://sodipodi.sourceforge.net/DTD/sodipodi-0.dtd"
   xmlns:inkscape="http://www.inkscape.org/namespaces/inkscape"
   width="16"
   height="16"
   viewBox="0 0 4.2333332 4.2333332"
   version="1.1"
   id="svg8"
   inkscape:version="0.92+devel (f96dc7e339, 2017-07-28, custom)"
   sodipodi:docname="glyph-step.svg">
  <defs
     id="defs2" />
  <sodipodi:namedview
     id="base"
     pagecolor="#002466"
     bordercolor="#ffffff"
     borderopacity="0.38039216"
     inkscape:pageopacity="1"
     inkscape:pageshadow="2"
     inkscape:zoom="25.75"
     inkscape:cx="11.489728"
     inkscape:cy="14.280107"
     inkscape:document-units="px"
     inkscape:current-layer="svg8"
     inkscape:document-rotation="0"
     showgrid="false"
     inkscape:showpageshadow="false"
     borderlayer="true"
     inkscape:window-width="1920"
     inkscape:window-height="1051"
     inkscape:window-x="0"
     inkscape:window-y="0"
     inkscape:window-maximized="1"
     units="px"
     inkscape:snap-bbox="false"
     inkscape:bbox-nodes="true"
     inkscape:snap-center="true"
     inkscape:snap-object-midpoints="true"
     inkscape:snap-page="true"
     inkscape:snap-grids="false"
     inkscape:snap-to-guides="false" />
  <metadata
     id="metadata5">
    <rdf:RDF>
      <cc:Work
         rdf:about="">
        <dc:format>image/svg+xml</dc:format>
        <dc:type
           rdf:resource="http://purl.org/dc/dcmitype/StillImage" />
        <dc:title></dc:title>
      </cc:Work>
    </rdf:RDF>
  </metadata>
  <path
     style="font-variation-settings:normal;vector-effect:none;fill:#d0d0d0;stroke-width:1.89999998;stroke-linecap:square"
     d="m 2.3988281,0 v 8.2480469 c 0.6283813,0.134449 1.0775723,0.6894277 1.078125,1.3320312 0.00103,0.7536599 -0.609621,1.3651809 -1.3632812,1.3652339 C 1.3600117,10.945259 0.74936521,10.333738 0.75039061,9.5800781 0.75094331,8.9374746 1.2001343,8.3824959 1.8285156,8.2480469 V 0.0078125 C 0.58887321,0.04456728 0,1.0480116 0,2.296875 v 11.40625 C 0,14.975407 1.0245927,16 2.296875,16 h 11.40625 C 14.975407,16 16,14.975407 16,13.703125 V 2.296875 C 16,1.0245927 14.975407,0 13.703125,0 h -2.007813 l 2.203126,8.2207031 c 0.642038,-0.033025 1.219903,0.3869452 1.386718,1.0078125 0.194915,0.7275988 -0.237143,1.4753914 -0.964844,1.6699224 -0.727598,0.194914 -1.47539,-0.237143 -1.669921,-0.9648442 -0.16638,-0.6207531 0.123326,-1.2734064 0.695312,-1.5664063 L 11.103516,0 H 8.7015625 V 8.2480469 C 9.3291673,8.3832921 9.777379,8.9380664 9.777734,9.5800781 9.778759,10.332975 9.1693032,10.94418 8.4164062,10.945312 7.662746,10.945259 7.0520996,10.333738 7.053125,9.5800781 7.0534797,8.9380663 7.5016919,8.3832919 8.1292969,8.2480469 V 0 H 5.5492188 V 8.2480469 C 6.1776001,8.3824959 6.6267911,8.9374746 6.6273438,9.5800781 6.6283692,10.333738 6.0177227,10.945259 5.2640625,10.945312 4.5104023,10.945259 3.8997558,10.333738 3.9007812,9.5800781 3.9013339,8.9374746 4.3505249,8.3824959 4.9789062,8.2480469 V 0 Z"
     transform="scale(0.26458333)"
     id="rect827"
     inkscape:connector-curvature="0"
     sodipodi:nodetypes="cccccccssssssscccccccccccccccccccccc" />
</svg>
